X:10741
T:Michael Wiggens. JC.089
M:6/8
L:1/8
Q:100
S:John Clare,Poet,Helpston. (1793-1864)
R:Jig
O:England
A:Northamptonshire
N:
Z:P Headford
K:D
A|dfe dcB|ABA AFA|DFA Bfa|baf e2A|!
dfe dcB|ABA AFA|DFA Bda|gfed2|!
|f|afd dfa|b2ag2f|gab afd|cee efg|!
agd dfa|b2ag2f|gba gfe|fddd2|!
|g|fdf ece|dBd {B}AFD|EFE EFA|agfe2g|!
fdf ece|dBd {B}AFD|DFA Bgf|edcd2|]
W:MS includes Dance Instructions.
